svg/bypass_alt.svg

<svg width="24" height="24" viewBox="0 0 24 24" xmlns="http://www.w3.org/2000/svg"><path d="M17.5 12H19V6h-6v1.5h3.5L12 12 6 6 5 7l7 7 5.5-5.5V12zM4 16h16v2H4v-2z"/></svg>

<svg width="24" height="24" viewBox="0 0 24 24"  xmlns="http://www.w3.org/2000/svg">
<path d="M17.5 12H19V6H13V7.5H16.5L12 12L6 6L5 7L12 14L17.5 8.5V12Z" />
<path d="M4 16H20V18H4V16Z" />
</svg>
